svgs/sharp-regular/lock.svg

<svg xmlns="http://www.w3.org/2000/svg" viewBox="0 0 448 512"><!--! Font Awesome Pro 6.4.2 by @fontawesome - https://fontawesome.com License - https://fontawesome.com/license (Commercial License) Copyright 2023 Fonticons, Inc. --><path d="M144 128v64H304V128c0-44.2-35.8-80-80-80s-80 35.8-80 80zM96 192V128C96 57.3 153.3 0 224 0s128 57.3 128 128v64h48 48v48V464v48H400 48 0V464 240 192H48 96zM48 464H400V240H48V464z"/></svg>

<svg xmlns="http://www.w3.org/2000/svg" viewBox="0 0 448 512"><!--! Font Awesome Pro 6.6.0 by @fontawesome - https://fontawesome.com License - https://fontawesome.com/license (Commercial License) Copyright 2024 Fonticons, Inc. --><path d="M144 128l0 64 160 0 0-64c0-44.2-35.8-80-80-80s-80 35.8-80 80zM96 192l0-64C96 57.3 153.3 0 224 0s128 57.3 128 128l0 64 48 0 48 0 0 48 0 224 0 48-48 0L48 512 0 512l0-48L0 240l0-48 48 0 48 0zM48 464l352 0 0-224L48 240l0 224z"/></svg>
